X:1
T:Brighton Camp
C:Adderbury
M:C
L:1/8
A:Adderbury
P:A(AB)6
K:G
P:A
gf|e2dc B2A2|BBG2 E2F2|G>GG2 GABc|d4 B2gf|
e2dc B2AA|B2G2 E2GG|F2A2  D2EF|G4 G4||
P:B
GF|G2Bc d2ef|g2d2 B2G2|B2d2  e2f2|g4 f4|
M:3/8
L:1/8
g2f|\
M:4/4
L:1/8
e2dc B2AA|B2G2 E2GG|F2A2  D2EF|G4 G4||
W:
W:Oh! let the night be ever so dark or ever so wet and windy,
W:I must return to the Brighton camp, to the girl I left behind me.
W:
</abc>



